X:373
T:The Mathematician
C:James Scott Skinner
B:The Scottish Violinist
Z:Nigel Gatherer
L:1/8
M:4/4
K:D
G | F>G^G>A f>dA>F | G>A_B>=B g>eB>d | c>ba>g  f>ed>c |\
   (3dfe (3dcB (3ABA (3GFE |
    F>G^G>A f>dA>F | G>A_B>=B g>eB>d | (3cba (3gfe (3dcB (3ABc |\
   (3dAf (3dAF D3||
a | d'>af>d A>FD>=C | B,>^DE>G B>eg>b | e'>bg>e B>GE>D | C>EA>c e>ac'>e'|
    f'>d'a>f d>AF>D | G>Bd>g b>d'g'>b | (3ad'c' (3bag (3fgf (3gfe|\
   (3dfa (3d'af d3|]
